X:684
T: Paddy Ryan's Dream
Z: Piano Box Version by Martin Fleischmann
H: Created 2015-04-10 /  Last Modified 2015-05-06
R: reel
M: 4/4
L: 1/8
K: Amin
AB|:AEEE cEEE|EG DC B,CDB,|A,3 B, CDEG|ABcB AEGB|!
AEEE cABG| E2 DC B,CDB,|A,A,A,B, CDEG|cABG ABcB:|
|:Aaa^g aecA|Ggg^f gdBG|Aaa^g ae=fg|e=fde ceBe|!
A2aA aecA|GggG gdBG|(3ABc Bd ced=f|edcB ABcB:|!

